build/assets/images/svg/icons/lk/basket/edit.svg

<svg width="24" height="24" viewBox="0 0 24 24" fill="none" xmlns="http://www.w3.org/2000/svg">
<path fill-rule="evenodd" clip-rule="evenodd" d="M20.5961 2.90838C19.2495 1.56179 17.0662 1.56179 15.7196 2.90838L7.19416 11.4338C6.58217 12.0458 6.18518 12.8398 6.06279 13.6966L5.81573 15.426C5.62717 16.7459 6.75854 17.8773 8.07847 17.6887L9.80784 17.4416C10.6646 17.3192 11.4586 16.9223 12.0706 16.3103L20.5961 7.78481C21.9426 6.43822 21.9426 4.25497 20.5961 2.90838ZM17.3433 4.1489C17.907 3.76463 18.6818 3.82253 19.1818 4.32259C19.6819 4.82265 19.7398 5.59744 19.3555 6.16112L17.3433 4.1489ZM15.9112 5.54522L17.9592 7.59322L10.6564 14.8961C10.3504 15.2021 9.95339 15.4005 9.525 15.4617L7.79563 15.7088L8.04269 13.9794C8.10388 13.551 8.30238 13.1541 8.60837 12.8481L15.9112 5.54522Z" fill="#70798E"/>
<path d="M6 1.99839C3.79086 1.99839 2 3.78925 2 5.99839V17.9984C2 20.2075 3.79086 21.9984 6 21.9984H18C20.2091 21.9984 22 20.2075 22 17.9984V11.9984C22 11.4461 21.5523 10.9984 21 10.9984C20.4477 10.9984 20 11.4461 20 11.9984V17.9984C20 19.103 19.1046 19.9984 18 19.9984H6C4.89543 19.9984 4 19.103 4 17.9984V5.99839C4 4.89382 4.89543 3.99839 6 3.99839H8.68421C9.2365 3.99839 9.68421 3.55068 9.68421 2.99839C9.68421 2.44611 9.2365 1.99839 8.68421 1.99839H6Z" fill="#70798E"/>
</svg>

<svg width="24" height="24" fill="none" xmlns="http://www.w3.org/2000/svg"><path fill-rule="evenodd" clip-rule="evenodd" d="M20.596 2.908a3.448 3.448 0 00-4.876 0l-8.526 8.526a4 4 0 00-1.131 2.263l-.247 1.729a2 2 0 002.262 2.263l1.73-.247a4 4 0 002.263-1.132l8.525-8.525a3.448 3.448 0 000-4.877zm-3.253 1.24a1.449 1.449 0 012.012 2.013L17.343 4.15zm-1.432 1.397l2.048 2.048-7.303 7.303a2 2 0 01-1.131.566l-1.73.247.248-1.73a2 2 0 01.565-1.13l7.303-7.304z" fill="#70798E"/><path d="M6 1.998a4 4 0 00-4 4v12a4 4 0 004 4h12a4 4 0 004-4v-6a1 1 0 10-2 0v6a2 2 0 01-2 2H6a2 2 0 01-2-2v-12a2 2 0 012-2h2.684a1 1 0 100-2H6z" fill="#70798E"/></svg>
